src/assets/icons/facebook.svg

<svg width="41" height="41" viewBox="0 0 41 41"  xmlns="http://www.w3.org/2000/svg">
<path d="M14.2617 23.647V40.2642H23.3242V23.647H30.082L31.4883 16.0063H23.3242V13.3032C23.3242 9.26416 24.9102 7.71729 29.0039 7.71729C30.2773 7.71729 31.3008 7.74854 31.8945 7.81104V0.881348C30.7773 0.57666 28.043 0.26416 26.4648 0.26416C18.1133 0.26416 14.2617 4.20947 14.2617 12.7173V16.0063H9.10547V23.647H14.2617Z"/>
</svg>

<svg xmlns="http://www.w3.org/2000/svg" width="40" height="40">
  <path fill="currentColor" d="M14.262 23.647v16.617h9.062V23.647h6.758l1.406-7.64h-8.164v-2.704c0-4.039 1.586-5.586 5.68-5.586 1.273 0 2.297.032 2.89.094V.881c-1.117-.304-3.851-.617-5.43-.617-8.35 0-12.202 3.945-12.202 12.453v3.29H9.105v7.64h5.157Z"/>
</svg>
